storage/app/icons/phosphoricons/fill/suitcase-fill.svg

<svg xmlns="http://www.w3.org/2000/svg" fill="currentColor" viewBox="0 0 256 256"><path d="M216 56h-40v-8a24 24 0 0 0-24-24h-48a24 24 0 0 0-24 24v8H40a16 16 0 0 0-16 16v128a16 16 0 0 0 16 16h176a16 16 0 0 0 16-16V72a16 16 0 0 0-16-16M96 72h64v128H96Zm0-24a8 8 0 0 1 8-8h48a8 8 0 0 1 8 8v8H96Z"/></svg>

<svg xmlns="http://www.w3.org/2000/svg" viewBox="0 0 256 256" fill="currentColor"><path d="M216,56H176V48a24,24,0,0,0-24-24H104A24,24,0,0,0,80,48v8H40A16,16,0,0,0,24,72V200a16,16,0,0,0,16,16H216a16,16,0,0,0,16-16V72A16,16,0,0,0,216,56ZM96,72h64V200H96Zm0-24a8,8,0,0,1,8-8h48a8,8,0,0,1,8,8v8H96Z"/></svg>
